X:1
T: Tily Tenant
C:C Sherrit
R:Jig
Q:180
K:D
M:6/8
L:1/16
A2|:F4A2 d2A2F2|G4B2 d2B2G2|F4A2 d2e2f2|e2E2E2 E2A2G2|
F4A2 d2A2F2|G4B2 e2f2g2|f2d2f2 e2c2e2|d2D2D2 D4A2:|
|:d4f2 a2f2d2|c4e2 g2f2e2|d2f2d2 c2a2c2|B2g2B2 A2F2A2|
B4d2 G2A2B2|A2d2f2 a4f2|1e2f2e2 d2c2B2|A4B2 c2d2e2:|2e2g2f2 g2e2c2|d6 d4||
